public/insta.svg

<svg width="32" height="32" viewBox="0 0 32 32" fill="none" xmlns="http://www.w3.org/2000/svg">
<circle cx="16" cy="16" r="15.6" fill="#131D0E" stroke="#FCFCFC" stroke-width="0.8"/>
<path d="M12.2864 11.0227C12.2862 11.3999 12.1445 11.7615 11.8925 12.0281C11.6405 12.2947 11.2988 12.4443 10.9426 12.4441C10.5863 12.444 10.2448 12.2939 9.99302 12.0271C9.74126 11.7603 9.59992 11.3985 9.6001 11.0213C9.60028 10.6441 9.74195 10.2825 9.99397 10.0159C10.246 9.74932 10.5877 9.59967 10.9439 9.59985C11.3001 9.60004 11.6417 9.75006 11.8934 10.0169C12.1452 10.2837 12.2865 10.6455 12.2864 11.0227ZM12.3266 13.4972H9.64039V22.3999H12.3266V13.4972ZM16.5709 13.4972H13.8981V22.3999H16.5441V17.7281C16.5441 15.1256 19.7474 14.8838 19.7474 17.7281V22.3999H22.4001V16.7611C22.4001 12.3737 17.6589 12.5373 16.5441 14.6918L16.5709 13.4972Z" fill="#FCFCFC"/>
</svg>

<svg xmlns="http://www.w3.org/2000/svg" width="32" height="32" fill="none" viewBox="0 0 32 32"><circle cx="16" cy="16" r="15.6" fill="#131d0e" stroke="#fcfcfc" stroke-width=".8"/><path fill="#fcfcfc" d="M12.286 11.023c0 .377-.141.739-.393 1.005a1.3 1.3 0 0 1-.95.416c-.357 0-.698-.15-.95-.417a1.47 1.47 0 0 1-.393-1.006c0-.377.142-.739.394-1.005.252-.267.594-.416.95-.416s.698.15.95.417c.251.267.393.629.392 1.006m.04 2.474H9.64V22.4h2.687zm4.245 0h-2.673V22.4h2.646v-4.672c0-2.602 3.203-2.844 3.203 0V22.4H22.4v-5.64c0-4.387-4.741-4.224-5.856-2.07z"/></svg>
